X: 34864
T: Robbie Hannan's
R: reel
M: 4/4
K: Dmajor
d2 AG FDDF|GEEA FDDA|d2 AG FDDg|1 fdec d2 d:|
defg affa|beed cAAc|1 defg affa|beec d2 AB:|

